X:1
T:Cooler. WCD3/6.193, The
L:1/8
Q:1/2=70
M:2/2
I:linebreak $
K:G
V:1 treble 
V:1
 d | BGdB ecdB | BGdB FA/B/ cA | BGdB ecdB | A/B/c FA =fAA :: d |$ e/f/g de BGdB | e/f/g de AFfA | %8
 e/f/g de BGdB | A/B/c FA =fAA :: d |$ BG G/G/G G/G/G ed | BG/G/ G/G/G FA/B/ cA | %13
 BG G/G/G G/G/G e2 | Ac FA =fAA :: d |$ e/f/g e/f/g BGBG | e/f/g e/f/g AFAF | e/f/g e/f/g BGBG | %19
 A/B/c FA =fAA :| %20
